X:146
T:Sonny's
M:3/4
L:1/8
R:Mazurka
K:D
|:DF|"D"A2 AG FA|d2 dA BA|"G"G3 B AG|"A7"FG EF DF|"D"A2 AG FA|d2 dA BA|"G"G3 g "A7"fe|"D"d4:|!
|:Ad|f2 fa gf|"A7"e2 eg fe|"D"d2 df ed|"A7"cd Bd Ad|"D"f2 fa gf|"A7"e2 eg fe|"D"d2 df "A7"ec|"D"d4 :|

